X: 48
T:Seymour's Reel. WCa.48
T:Torryburn Lasses,aka. WCa.48
M:C|
L:1/8
Q:200
C:Torryburn Lasses,aka.
S:Wm. Calvert MS, 1812, Leyburn, Yorks.
R:reel
O:England
A:North Yorkshire
Z:vmp.Chris Partington, May 2003
K:G
G2BG BddB|c2ec dggd|G2BG Bcdg|edcBA2G2::!
g2bg gfed|edef gdBG|g2bg gfed|edefg2ga|!
bagf gfed|edef gdBG|cBcd efge|dcBAG2G2:||
